X: 17
T: Green Mountain Petronella *
R: Reel
M: 4/4
L: 1/8
K: Gmaj
|: G>E |"G"D2 G2 G>F G2 | D2 B2 B2- B>d | "Am"c2 B2 A>Bc>d | "D"e2 d2 d>^cd>B |"G"D2 G2 G>FG>E | D2 B2 B2 d2 |
 "Am"d2 c>A "D"D>EF>G | A2 (3GAG "G"G2 :||: (3Bcd |"G"g2 g2 "D"f2 f2 | "C"e>fg>e "G"d2 d2 | "C"e>de>f "G"g2 (3BcB |
 "Am"B2 AG "D"A2 B>d |"G"g2 (3gag "D"f2 g>f | "C"e2 g>e "G"d>BG>d | "C"e2 e>f "G"g>ed>c | "D7"A2 A2 "G" G2 :|

